src/next/cmd/sc_datadatapilotrun.svg

<svg height="16" width="16" xmlns="http://www.w3.org/2000/svg" xmlns:xlink="http://www.w3.org/1999/xlink"><linearGradient id="a" gradientTransform="matrix(.30523238 0 0 1.3043803 6.372135 -.351998)" gradientUnits="userSpaceOnUse" x1="46.048" x2="46.048" y1="128.01709" y2="16.6203"><stop offset="0" stop-color="#c7cdd7"/><stop offset="1" stop-color="#fff"/></linearGradient><linearGradient id="b" gradientUnits="userSpaceOnUse" x1="67.266975" x2="67.266975" y1="288.20084" y2="-56"><stop offset="0"/><stop offset="1" stop-color="#fff"/></linearGradient><linearGradient id="c" gradientTransform="matrix(-1 0 0 1 154.9807 67.757363)" gradientUnits="userSpaceOnUse" x1="71.227066" x2="28.9296" y1="10.599652" y2="70.897705"><stop offset="0" stop-color="#bbd6ff"/><stop offset="1" stop-color="#0057ae"/></linearGradient><linearGradient id="d" gradientTransform="matrix(1.037037 0 0 1.2158938 -.296299 -21.49932)" gradientUnits="userSpaceOnUse" x1="8" x2="80" y1="36" y2="112"><stop offset="0" stop-color="#c8ffa5"/><stop offset="1" stop-color="#dfffcb"/></linearGradient><linearGradient id="e" gradientUnits="userSpaceOnUse" x1="67.266975" x2="67.266975" y1="288.20084" y2="-56"><stop offset="0" stop-color="#48940b" stop-opacity=".831373"/><stop offset="1" stop-color="#48940b" stop-opacity=".831373"/></linearGradient><linearGradient id="f" gradientTransform="matrix(5.4921716 0 0 -5.4921716 -467.24293 446.32459)" gradientUnits="userSpaceOnUse" x1="101.99715" x2="104" y1="83.220375" y2="57.11084"><stop offset="0" stop-color="#d4e2f3"/><stop offset="1" stop-color="#fff" stop-opacity="0"/></linearGradient><linearGradient id="g" gradientUnits="userSpaceOnUse" x1="46.825066" x2="123.00084" y1="77.669472" y2="77.669472"><stop offset="0" stop-color="#2c72c7"/><stop offset="1" stop-color="#00438a"/></linearGradient><g transform="scale(.125)"><path d="m8 8h31.743378v104.4853h-31.743378z" fill="url(#a)"/><path d="m17.4543 128h116v4h-116z" fill="#fff" opacity=".262911"/><path d="m0 8v4.707031 19.292969 4 20 4.199219 19.800781 4 24.11328 3.88672h8 32 8 .03906v-3.88672h-.03906v-24.11328h.03906v-4h-.03906v-19.800781h.03906v-4.199219h-.03906v-20h.03906v-.101562h79.96094v-27.898438h-120zm8 4.707031h32v19.292969h-32zm40 0h32v19.292969h-32zm40 0h32v19.292969h-32zm-80 23.292969h32v20h-32zm0 24.199219h32v19.800781h-32zm0 23.800781h32v24.11328h-32z" fill="url(#b)"/><path d="m8 12.5457h112v19.4543h-112z" fill="url(#d)"/><path d="m0 8v4.707031 19.292969 4h8 32 8 .03906v-.101562h79.96094v-27.898438h-120zm8 4.707031h32v19.292969h-32zm40 0h32v19.292969h-32zm40 0h32v19.292969h-32z" fill="url(#e)"/><g transform="matrix(1.0829116 0 0 1.0829116 -10.697781 -12.853721)"><path d="m103.00085 39.581578-20.000003 24 16-3.824219c4.320943 36.554361-15.129056 32.049812-32 32l3.824219-16-24 20 24 20.000001-3.824219-16c29.28178 3.57202 44.038973-8.252026 40.000003-40.000001l16 3.824219z" fill="none" stroke="url(#g)" stroke-linecap="round" stroke-linejoin="round" stroke-width="10"/><g fill-rule="evenodd"><path d="m103.00085 39.581578-20.000003 24 16-3.824219c4.320943 36.554361-15.129056 32.049812-32 32l3.824219-16-24 20 24 20.000001-3.824219-16c29.28178 3.57202 44.038973-8.252026 40.000003-40.000001l16 3.824219z" fill="url(#c)"/><path d="m103.00074 39.582031-20.000006 24 16.000003-3.824219c1.743563 14.750261-.38617 22.809901-4.65235 27.179688 3.70511-1.003936 7.387903-2.031766 11.048833-3.082031 2.28912-6.17274 2.86803-14.158062 1.60352-24.097657l16 3.824219z" fill="url(#f)"/></g></g></g></svg>

<?xml version="1.0" encoding="UTF-8" standalone="no"?>
<svg
   xmlns:dc="http://purl.org/dc/elements/1.1/"
   xmlns:cc="http://creativecommons.org/ns#"
   xmlns:rdf="http://www.w3.org/1999/02/22-rdf-syntax-ns#"
   xmlns:svg="http://www.w3.org/2000/svg"
   xmlns="http://www.w3.org/2000/svg"
   xmlns:xlink="http://www.w3.org/1999/xlink"
   xmlns:sodipodi="http://sodipodi.sourceforge.net/DTD/sodipodi-0.dtd"
   xmlns:inkscape="http://www.inkscape.org/namespaces/inkscape"
   height="16"
   width="16"
   version="1.1"
   id="svg75"
   sodipodi:docname="sc_datadatapilotrun.svg"
   inkscape:version="0.92.4 (unknown)">
  <metadata
     id="metadata81">
    <rdf:RDF>
      <cc:Work
         rdf:about="">
        <dc:format>image/svg+xml</dc:format>
        <dc:type
           rdf:resource="http://purl.org/dc/dcmitype/StillImage" />
        <dc:title></dc:title>
      </cc:Work>
    </rdf:RDF>
  </metadata>
  <defs
     id="defs79" />
  <sodipodi:namedview
     pagecolor="#ffffff"
     bordercolor="#666666"
     borderopacity="1"
     objecttolerance="10"
     gridtolerance="10"
     guidetolerance="10"
     inkscape:pageopacity="0"
     inkscape:pageshadow="2"
     inkscape:window-width="1366"
     inkscape:window-height="714"
     id="namedview77"
     showgrid="true"
     inkscape:zoom="10.429825"
     inkscape:cx="-1.5433514"
     inkscape:cy="16.881072"
     inkscape:window-x="0"
     inkscape:window-y="28"
     inkscape:window-maximized="1"
     inkscape:current-layer="g903">
    <inkscape:grid
       type="xygrid"
       id="grid888" />
  </sodipodi:namedview>
  <linearGradient
     id="a"
     gradientTransform="matrix(0.30523238,0,0,1.3043803,6.372135,-0.351998)"
     gradientUnits="userSpaceOnUse"
     x1="46.048"
     x2="46.048"
     y1="128.01709"
     y2="16.6203">
    <stop
       offset="0"
       stop-color="#c7cdd7"
       id="stop2" />
    <stop
       offset="1"
       stop-color="#fff"
       id="stop4" />
  </linearGradient>
  <linearGradient
     id="b"
     gradientUnits="userSpaceOnUse"
     x1="67.266975"
     x2="67.266975"
     y1="288.20084"
     y2="-56">
    <stop
       offset="0"
       id="stop7" />
    <stop
       offset="1"
       stop-color="#fff"
       id="stop9" />
  </linearGradient>
  <linearGradient
     id="c"
     gradientTransform="matrix(-1,0,0,1,154.9807,67.757363)"
     gradientUnits="userSpaceOnUse"
     x1="71.227066"
     x2="28.9296"
     xlink:href="#j"
     y1="10.599652"
     y2="70.897705" />
  <linearGradient
     id="d"
     gradientTransform="matrix(1.037037,0,0,1.2158938,-0.296299,-21.49932)"
     gradientUnits="userSpaceOnUse"
     x1="8"
     x2="80"
     y1="36"
     y2="112">
    <stop
       offset="0"
       stop-color="#c8ffa5"
       id="stop13" />
    <stop
       offset="1"
       stop-color="#dfffcb"
       id="stop15" />
  </linearGradient>
  <linearGradient
     id="e"
     gradientUnits="userSpaceOnUse"
     x1="67.266975"
     x2="67.266975"
     y1="288.20084"
     y2="-56">
    <stop
       offset="0"
       stop-color="#48940b"
       stop-opacity=".831373"
       id="stop18" />
    <stop
       offset="1"
       stop-color="#48940b"
       stop-opacity=".831373"
       id="stop20" />
  </linearGradient>
  <linearGradient
     id="f"
     gradientTransform="matrix(5.4921716,0,0,-5.4921716,-467.24293,446.32459)"
     gradientUnits="userSpaceOnUse"
     x1="101.99715"
     x2="104"
     y1="83.220375"
     y2="57.11084">
    <stop
       offset="0"
       stop-color="#d4e2f3"
       id="stop23" />
    <stop
       offset="1"
       stop-color="#fff"
       stop-opacity="0"
       id="stop25" />
  </linearGradient>
  <linearGradient
     id="g"
     gradientUnits="userSpaceOnUse"
     x1="256.5"
     x2="267.74561"
     y1="68.5"
     y2="-53.567196">
    <stop
       offset="0"
       stop-color="#fff"
       id="stop28" />
    <stop
       offset="1"
       stop-color="#fff"
       stop-opacity="0"
       id="stop30" />
  </linearGradient>
  <filter
     id="h">
    <feGaussianBlur
       stdDeviation=".385"
       id="feGaussianBlur33" />
  </filter>
  <linearGradient
     id="i"
     gradientUnits="userSpaceOnUse"
     x1="246.37839"
     x2="244.9539"
     xlink:href="#j"
     y1="-14.213035"
     y2="75.696915" />
  <linearGradient
     id="j">
    <stop
       offset="0"
       stop-color="#bbd6ff"
       id="stop37" />
    <stop
       offset="1"
       stop-color="#0057ae"
       id="stop39" />
  </linearGradient>
  <linearGradient
     id="k"
     gradientUnits="userSpaceOnUse"
     x1="219.23117"
     x2="246.63911"
     xlink:href="#l"
     y1="-30.287811"
     y2="72" />
  <linearGradient
     id="l">
    <stop
       offset="0"
       stop-color="#2c72c7"
       id="stop43" />
    <stop
       offset="1"
       stop-color="#00438a"
       id="stop45" />
  </linearGradient>
  <linearGradient
     id="m"
     gradientUnits="userSpaceOnUse"
     x1="46.825066"
     x2="123.00084"
     xlink:href="#l"
     y1="77.669472"
     y2="77.669472" />
  <g
     id="g903"
     transform="scale(0.125)">
    <path
       id="path49"
       d="M 8,8 H 39.743378 V 112.4853 H 8 Z"
       style="fill:url(#a)"
       inkscape:connector-curvature="0" />
    <path
       id="path51"
       d="m 17.4543,128 h 116 v 4 h -116 z"
       inkscape:connector-curvature="0"
       style="opacity:0.26291103;fill:#ffffff" />
    <path
       id="path53"
       d="M 0,8 V 12.707031 32 36 56 60.199219 80 84 108.11328 112 h 8 32 8 0.03906 v -3.88672 H 48 V 84 h 0.03906 V 80 H 48 V 60.199219 h 0.03906 V 56 H 48 V 36 h 0.03906 V 35.898438 H 128 V 8 H 8 Z m 8,4.707031 H 40 V 32 H 8 Z m 40,0 H 80 V 32 H 48 Z m 40,0 h 32 V 32 H 88 Z M 8,36 H 40 V 56 H 8 Z M 8,60.199219 H 40 V 80 H 8 Z M 8,84 h 32 v 24.11328 H 8 Z"
       style="fill:url(#b)"
       inkscape:connector-curvature="0" />
    <path
       id="path55"
       d="M 8,12.5457 H 120 V 32 H 8 Z"
       style="fill:url(#d)"
       inkscape:connector-curvature="0" />
    <path
       id="path57"
       d="M 0,8 V 12.707031 32 36 h 8 32 8 0.03906 V 35.898438 H 128 V 8 H 8 Z m 8,4.707031 H 40 V 32 H 8 Z m 40,0 H 80 V 32 H 48 Z m 40,0 h 32 V 32 H 88 Z"
       style="fill:url(#e)"
       inkscape:connector-curvature="0" />
    <g
       id="g73"
       transform="matrix(1.0829116,0,0,1.0829116,-10.697781,-12.853721)">
      <path
         id="path65"
         d="m 103.00085,39.581578 -20.000003,24 16,-3.824219 c 4.320943,36.554361 -15.129056,32.049812 -32,32 l 3.824219,-16 -24,20 24,20.000001 -3.824219,-16 c 29.28178,3.57202 44.038973,-8.252026 40.000003,-40.000001 l 16,3.824219 z"
         style="fill:none;stroke:url(#m);stroke-width:10;stroke-linecap:round;stroke-linejoin:round"
         inkscape:connector-curvature="0" />
      <g
         id="g71"
         style="fill-rule:evenodd">
        <path
           id="path67"
           d="m 103.00085,39.581578 -20.000003,24 16,-3.824219 c 4.320943,36.554361 -15.129056,32.049812 -32,32 l 3.824219,-16 -24,20 24,20.000001 -3.824219,-16 c 29.28178,3.57202 44.038973,-8.252026 40.000003,-40.000001 l 16,3.824219 z"
           style="fill:url(#c)"
           inkscape:connector-curvature="0" />
        <path
           id="path69"
           d="m 103.00074,39.582031 -20.000006,24 16.000003,-3.824219 c 1.743563,14.750261 -0.38617,22.809901 -4.65235,27.179688 3.70511,-1.003936 7.387903,-2.031766 11.048833,-3.082031 2.28912,-6.17274 2.86803,-14.158062 1.60352,-24.097657 l 16,3.824219 z"
           style="fill:url(#f)"
           inkscape:connector-curvature="0" />
      </g>
    </g>
  </g>
</svg>
